X: 580
T: Meimei jiaopengyou
%%abc-version 2.0
%%abcx-abcm2ps-target-version 5.9.1 (29 Sep 2008)
%%abc-creator hum2abc beta
%%abcx-conversion-date 2013/10/02 07:52:30
%%abc-edited-by Helmut Schaffrath
%%humdrum-veritas 2766391066
%%humdrum-veritas-data 54736048
%%continueall 1
%%barnumbers 0
L: 1/8
M: 2/4
K: F
d cA2 [I:setbarnb 1]| 
d cA2 | 
f d/ c/ d c | 
F> GA2 | 
f d/ c/ d c | 
A c F D | 
D G E D | 
C4 | 
F DF2 | 
c C/ D/F2 | 
F DF2 | 
C C/ D/F2 | 
F D F D | 
c dc2 | 
G G/ G/ c D | 
C4 |]  



